X: 35068
T: Rolling In The Ryegrass
R: reel
M: 4/4
K: Dmajor
A2AF DFAF|G2BG DGBG|~A3F DFAF|GBAF EFDE|
F2AF DFAF|G2BG DGBG|~A3F DFAF|GBAF EFD2||
ABde f2df|g2eg fedB|ABde f2df|1 afdf e2dB:|2 afdf efdB||

